public/topics/24.svg

<svg width="250" height="250" viewBox="0 0 250 250" fill="none" xmlns="http://www.w3.org/2000/svg">
<rect width="250" height="250" rx="30" fill="#006666"/>
<path d="M50.2 174.2C54.7333 174.467 57.7333 174.6 59.2 174.6C63.7333 174.6 67.7333 174.533 71.2 174.4C74.8 174.267 77.8667 174.133 80.4 174C86.9333 173.6 92.8 173.4 98 173.4C103.067 173.4 106.8 174.733 109.2 177.4C111.6 180.067 112.8 183.6 112.8 188C112.8 190.133 111.4 191.867 108.6 193.2C105.8 194.4 102.933 195 100 195C97.4667 195 92.2 194.733 84.2 194.2C74.6 193.4 67.0667 193 61.6 193C58.6667 193 55.2 193.2 51.2 193.6C49.6 193.733 47.6667 193.867 45.4 194C43.1333 194.133 40.6 194.2 37.8 194.2C32.4667 194.2 28.4 193.467 25.6 192C22.8 190.533 21.4 187.867 21.4 184C21.4 180.667 22.7333 177.267 25.4 173.8C28.0667 170.333 31.8 166.2 36.6 161.4L41.4 156.6C43.5333 154.333 47.4667 150.467 53.2 145C62.6667 136.467 70 128.933 75.2 122.4C80.5333 115.867 83.2 109.4 83.2 103C83.2 98.8667 81.2 95.5333 77.2 93C73.3333 90.3333 68.8667 89 63.8 89C56.0667 89 50.4667 90.7333 47 94.2C43.6667 97.5333 42 102.4 42 108.8C42 110.4 41.0667 111.867 39.2 113.2C37.4667 114.4 35.2667 115 32.6 115C28.8667 115 26.2667 113.667 24.8 111C23.3333 108.333 22.6 105.067 22.6 101.2C22.6 95.0667 24.4667 89.6667 28.2 85C31.9333 80.2 37 76.4667 43.4 73.8C49.9333 71.1333 57.1333 69.8 65 69.8C70.6 69.8 76.4 71.2 82.4 74C88.5333 76.6667 93.6 80.3333 97.6 85C101.733 89.5333 103.8 94.5333 103.8 100C103.8 108.267 101.733 116.133 97.6 123.6C93.4667 131.067 88.6 137.733 83 143.6C77.5333 149.333 70.4 156.133 61.6 164C57.3333 167.6 53.5333 171 50.2 174.2ZM164.473 75C164.473 81.5333 163.273 89.1333 160.873 97.8C158.607 106.333 155.273 116.867 150.873 129.4L146.273 143.2C148.54 143.6 150.873 143.8 153.273 143.8C157.407 143.8 163.607 143.4 171.873 142.6C180.14 141.8 186.073 141.4 189.673 141.4L189.473 119.4C189.207 104.2 189.073 93 189.073 85.8C189.073 76.3333 192.207 71.6 198.473 71.6C203.407 71.6 206.54 72.8667 207.873 75.4C209.34 77.9333 210.073 81.7333 210.073 86.8C210.073 92 209.673 100.067 208.873 111C208.74 113.133 208.54 116.667 208.273 121.6C208.007 126.533 207.873 130.8 207.873 134.4L208.073 140.8L212.073 140.6C215.273 140.333 217.74 140.2 219.473 140.2C222.673 140.2 225.74 141.267 228.673 143.4C231.607 145.4 233.073 147.8 233.073 150.6C233.073 153.933 232.54 156.533 231.473 158.4C230.54 160.267 229.407 161.2 228.073 161.2C225.807 161.2 222.94 160.933 219.473 160.4C218.673 160.4 217.473 160.333 215.873 160.2C214.273 159.933 212.74 159.8 211.273 159.8L207.873 160L208.073 187C208.073 189.8 207.14 191.933 205.273 193.4C203.407 194.867 201.273 195.6 198.873 195.6C195.94 195.6 193.34 194.667 191.073 192.8C188.807 190.933 187.673 188.6 187.673 185.8C187.673 176.867 187.807 169.867 188.073 164.8C188.207 163.6 188.273 162.133 188.273 160.4C184.273 160.267 177.34 160.733 167.473 161.8C158.14 162.867 151.073 163.4 146.273 163.4C140.14 163.4 134.94 162.533 130.673 160.8C126.54 159.067 124.473 156.333 124.473 152.6C124.473 149 125.207 144.6 126.673 139.4C128.14 134.2 130.34 127.2 133.273 118.4C134.607 114.933 135.607 112.067 136.273 109.8C138.673 103 140.473 97.2667 141.673 92.6C142.873 87.8 144.207 82 145.673 75.2C146.207 73.0667 147.34 71.4667 149.073 70.4C150.807 69.3333 152.807 68.8 155.073 68.8C157.473 68.8 159.607 69.4 161.473 70.6C163.473 71.6667 164.473 73.1333 164.473 75Z" fill="white"/>
</svg>

<svg xmlns="http://www.w3.org/2000/svg" width="250" height="250" fill="none" viewBox="0 0 250 250"><rect width="250" height="250" fill="#066" rx="30"/><path fill="#fff" d="M50.2 174.2q6.8.4 9 .4 6.8 0 12-.2 5.4-.2 9.2-.4 9.8-.6 17.6-.6 7.6 0 11.2 4t3.6 10.6q0 3.2-4.2 5.2-4.2 1.8-8.6 1.8-3.8 0-15.8-.8-14.4-1.2-22.6-1.2-4.4 0-10.4.6-2.4.2-5.8.4t-7.6.2q-8 0-12.2-2.2t-4.2-8q0-5 4-10.2t11.2-12.4l4.8-4.8q3.2-3.4 11.8-11.6 14.2-12.8 22-22.6 8-9.8 8-19.4 0-6.2-6-10-5.8-4-13.4-4-11.6 0-16.8 5.2-5 5-5 14.6 0 2.4-2.8 4.4-2.6 1.8-6.6 1.8-5.6 0-7.8-4t-2.2-9.8q0-9.2 5.6-16.2 5.6-7.2 15.2-11.2 9.8-4 21.6-4 8.4 0 17.4 4.2 9.2 4 15.2 11 6.2 6.8 6.2 15 0 12.4-6.2 23.6t-14.6 20q-8.2 8.6-21.4 20.4-6.4 5.4-11.4 10.2M164.473 75q0 9.8-3.6 22.8-3.4 12.8-10 31.6l-4.6 13.8q3.4.6 7 .6 6.201 0 18.6-1.2t17.8-1.2l-.2-22q-.4-22.8-.4-33.6 0-14.2 9.4-14.2 7.4 0 9.4 3.8 2.2 3.8 2.2 11.4 0 7.8-1.2 24.2-.2 3.2-.6 10.6t-.4 12.8l.2 6.4 4-.2q4.8-.4 7.4-.4 4.8 0 9.2 3.2 4.4 3 4.4 7.2 0 5-1.6 7.8-1.4 2.8-3.4 2.8-3.4 0-8.6-.8-1.2 0-3.6-.2-2.4-.4-4.6-.4l-3.4.2.2 27q0 4.2-2.8 6.4t-6.4 2.2q-4.4 0-7.8-2.8t-3.4-7q0-13.4.4-21 .2-1.8.2-4.4-6-.2-20.8 1.4-14 1.6-21.2 1.6-9.2 0-15.6-2.6-6.2-2.6-6.2-8.2 0-5.4 2.2-13.2t6.6-21q2.001-5.2 3-8.6 3.6-10.2 5.4-17.2 1.8-7.2 4-17.4.8-3.2 3.4-4.8 2.601-1.6 6-1.6 3.6 0 6.4 1.8 3 1.6 3 4.4"/></svg>
